X:1
T:6 Gedichte, Op.8
T:Abreise
T:der Frau Emilie von Henning geb. Krutisch hochachtungsvoll zugeeignet
T:6. Abreise
T:Johanna Kinkel
T:6 Gedichte, Op.8 
T:Emanuel Geibel
T:Creative Commons copyright waiver (CC0 1.0 Universal)
T:Creative Commons copyright waiver (CC0 1.0 Universal)
C:Johanna Kinkel (originally published under the name Johanna Mathieux)
Z:Emanuel Geibel
Z:Creative Commons copyright waiver (CC0 1.0 Universal)
%%score ( 1 2 ) { ( 3 5 ) | ( 4 6 ) }
L:1/8
Q:1/4=104
M:6/8
K:Bb
V:1 treble nm="Singstimme\nVoice"
V:2 treble 
V:3 treble nm="Pianoforte"
V:5 treble 
V:4 bass 
V:6 bass 
V:1
"^Allegretto grazioso"!mf! D/E/ | F2 G/A/ B2 B/c/ | %2
w: Es *|kommt ein * Schiff ge- *|
w: Und *|an des * Schiff- leins *|
 (d2 c) B"^Modern spelling:\n\"rot\"            v.1\n" z B | _c3/2 B/ B e3/2 B/ B | %4
w: zo- * gen, rot|glü- hen die See- gel im|
w: Ran- * de steht|hoch * der Knab' und er|
 B>=c B A2!p! F | e2 d d c A | A>Bc/B/ F2!mp! F | G2 A!<(! =B c!<)! d |!<(! e>de/d/!<)! c2!f! F | %9
w: A- * bend- schein, der|Wind kommt ko- send ge-|flo- * * * gen, und|lei- se plät- schern die|Wo- * * * gen, und|
w: schwingt den Po- kal; ihr|* ihr flie- get zum|Stran- * * * de, o|grüsst im Hei- mi- schen|Lan- * * * de die|
!f! dA B (dc) A | B2 d !tenuto!.f2!mf! B | dA B d2 c | B2 z[Q:1/4=102] z2!p! F | %13
w: Hör- * ner- ton * schallt|drein, tra- rah, und|Hör- * ner- ton schallt|drein. Tra-|
w: Lie- nen viel tau- * send|mal, tra- rah, die|Lie- ben viel tau- send|mal. Tra-|
[Q:1/4=100] c3- c2 f |[Q:1/4=98]!p! d3- d2 G |[Q:1/4=96]!p!!>(! e2 d[Q:1/4=90] c2 d!>)! | %16
w: rah, _ tra-|rah, _ tra-|rah, tra- rah, tra-|
w: rah, _ tra-|rah, _ tra-|rah, tra- rah, tra-|
"^dim." B6-[Q:1/4=98][Q:1/4=104] | B6- |!pp! !fermata!B3- B2 :| %19
w: rah!|_||
w: rah!|_||
V:2
 x | x6 | x6 | _c2 B e2 B | B3/2 =c/ B x2 x | e3/2 e/ d x2 x | x6 | x6 | x6 | d A B x2 x | x6 | %11
w: |||||||||||
w: |||||Vög- lein, *||||||
 d A B x2 x | x6 | x6 | x6 | x6 | x6 | x6 | x5 :| %19
w: ||||||||
w: ||||||||
V:3
 z |!mf! d/B/F/D/F/B/ d/B/G/=E/G/B/ | (d2 c) d/B/F/D/F/B/ | d/_A/F/D/F/A/ e/B/_G/E/G/B/ | %4
 =e/B/G/=E/G/B/ f/c/A/F/A/c/ |!pp!!<(! e/c/B/_G/B/c/ e/c/A/E/A/c/ | d/B/F/D/F/B/ d/B/F/D/F/B/ | %7
 d/=B/G/!<)!!mp!!<(!F/G/B/ d/B/G/F/G/B/!<)! |!f! c/_B/_G/E/G/B/ c/A/F/E/F/c/ | %9
!f!!>(! d/B/F/D/F/B/ c/A/F/E/F/A/ | d/B/F/D/F/B/ d/B/F/D/F/B/ | d/B/G/=E/G/B/ (d2 c)!>)! | %12
!mf!"_dim." d/B/F/D/F/B/"_rallen" d/B/F/D/F/B/ | c/A/F/E/F/A/"_tan" c/A/F/E/F/A/ | %14
 d/B/F/D/F/B/"_do" d/=B/G/F/G/d/ | e2 d (c2 d) |!pp! B/"^a tempo"F/D/F/A/B/ d/B/F/B/^c/d/ | %17
 f/d/B/d/=e/f/ b/f/d/f/a/b/ | !fermata!d'3- d'2 :| %19
V:4
 z | B,,/F,/B,/[I:staff -1]D/[I:staff +1]B,/F,/ G,,/G,/B,/C/B,/G,/ | %2
 F,,/F,/A,/C/A,/F,/ B,,/F,/B,/[I:staff -1]D/[I:staff +1]B,/F,/ | [B,,B,]/ x/ x2 [E,,E,]/ x/ x2 | %4
 [C,,C,]/ G,/B,/C/B,/G,/ [F,,F,]/ C,/F,/A,/F,/C,/ | F,,/ E,/_G,/B,/G,/E,/ F,,/ C,/F,/A,/F,/C,/ | %6
 B,,/F,/B,/[I:staff -1]D/[I:staff +1]B,/F,/ B,,/F,/B,/[I:staff -1]D/[I:staff +1]B,/F,/ | %7
 G,,/D,/G,/=B,/G,/D,/ G,,/D,/G,/B,/G,/D,/ | C,/E,/_G,/B,/G,/E,/ F,,/C,/F,/A,/F,/C,/ | %9
 B,,/F,/B,/[I:staff -1]D/[I:staff +1]B,/F,/ F,,/F,/A,/C/A,/F,/ | %10
 B,,/F,/B,/[I:staff -1]D/[I:staff +1]B,/F,/ B,,/F,/B,/[I:staff -1]D/[I:staff +1]B,/F,/ | %11
 G,,/G,/B,/C/B,/G,/ F,,/F,/A,/C/A,/F,/ | %12
 B,,/F,/B,/[I:staff -1]D/[I:staff +1]B,/F,/ B,,/F,/B,/[I:staff -1]D/[I:staff +1]B,/F,/ | %13
 F,,/F,/A,/C/A,/F,/ F,,/F,/A,/C/A,/F,/ | %14
 B,,/F,/B,/[I:staff -1]D/[I:staff +1]B,/F,/ G,,/D,/G,/=B,/G,/D,/ | %15
 C,/E,/_G,/B,/G,/E,/ F,,/F,/A,/C/A,/F,/ |!ped! B,,/F,/B,/D/B,/F,/ B,,/F,/B,/D/B,/F,/ | %17
 B,,/F,/B,/D/B,/F,/ B,,/F,/B,/D/B,/F,/ | !fermata!B,,3- B,,2!ped-up! :| %19
V:5
 x | x6 | d/A/F/E/F/A/ x3 | [Dd]/ x5/2 [Ee]/ x5/2 | [E=e]/ x5/2 [Ff]/ x5/2 | x6 | x6 | x6 | x6 | %9
 x6 | x6 | x3 d/A/_G/_E/F/A/ | x6 | x6 | x6 | e/c/B/_G/B/G/ c/A/F/E/F/A/ | x6 | x6 | x5 :| %19
V:6
 x | x6 | x6 | B,,/F,/_A,/B,/A,/F,/ E,,/E,/_G,/B,/G,/E,/ | x6 | x6 | x6 | x6 | x6 | x6 | x6 | x6 | %12
 x6 | x6 | x6 | x6 | x6 | x6 | x5 :| %19

